icons/outline/square-3-stack-3d.svg

<svg width="24" height="24" viewBox="0 0 24 24" fill="none" xmlns="http://www.w3.org/2000/svg">
<path d="M6.42857 9.75L2.25 12L6.42857 14.25M6.42857 9.75L12 12.75L17.5714 9.75M6.42857 9.75L2.25 7.5L12 2.25L21.75 7.5L17.5714 9.75M17.5714 9.75L21.75 12L17.5714 14.25M17.5714 14.25L21.75 16.5L12 21.75L2.25 16.5L6.42857 14.25M17.5714 14.25L12 17.25L6.42857 14.25" stroke="#0F172A" stroke-width="1.5" stroke-linecap="round" stroke-linejoin="round"/>
</svg>

<svg xmlns="http://www.w3.org/2000/svg" fill="none" viewBox="0 0 24 24" stroke-width="1.5" stroke="currentColor" aria-hidden="true" data-slot="icon">
  <path stroke-linecap="round" stroke-linejoin="round" d="M6.429 9.75 2.25 12l4.179 2.25m0-4.5 5.571 3 5.571-3m-11.142 0L2.25 7.5 12 2.25l9.75 5.25-4.179 2.25m0 0L21.75 12l-4.179 2.25m0 0 4.179 2.25L12 21.75 2.25 16.5l4.179-2.25m11.142 0-5.571 3-5.571-3"/>
</svg>
